public/images/logos/typescript.svg

<svg xmlns="http://www.w3.org/2000/svg" xmlns:xlink="http://www.w3.org/1999/xlink" viewBox="0,0,256,256" width="50px" height="50px" fill-rule="nonzero"><g fill="#ffffff" fill-rule="nonzero" stroke="none" stroke-width="1" stroke-linecap="butt" stroke-linejoin="miter" stroke-miterlimit="10" stroke-dasharray="" stroke-dashoffset="0" font-family="none" font-weight="none" font-size="none" text-anchor="none" style="mix-blend-mode: normal"><g transform="scale(5.12,5.12)"><path d="M45,4h-40c-0.553,0 -1,0.448 -1,1v40c0,0.552 0.447,1 1,1h40c0.553,0 1,-0.448 1,-1v-40c0,-0.552 -0.447,-1 -1,-1zM29,26.445h-5v15.555h-4v-15.555h-5v-3.445h14zM30.121,41.112v-4.158c0,0 2.271,1.712 4.996,1.712c2.725,0 2.62,-1.782 2.62,-2.026c0,-2.586 -7.721,-2.586 -7.721,-8.315c0,-7.791 11.25,-4.717 11.25,-4.717l-0.14,3.704c0,0 -1.887,-1.258 -4.018,-1.258c-2.131,0 -2.9,1.013 -2.9,2.096c0,2.795 7.791,2.516 7.791,8.141c0.001,8.664 -11.878,4.821 -11.878,4.821z"></path></g></g></svg>

<svg xmlns="http://www.w3.org/2000/svg"  viewBox="0 0 50 50" width="50px" height="50px"><path d="M45,4H5C4.447,4,4,4.448,4,5v40c0,0.552,0.447,1,1,1h40c0.553,0,1-0.448,1-1V5C46,4.448,45.553,4,45,4z M29,26.445h-5V42h-4	V26.445h-5V23h14V26.445z M30.121,41.112v-4.158c0,0,2.271,1.712,4.996,1.712c2.725,0,2.62-1.782,2.62-2.026	c0-2.586-7.721-2.586-7.721-8.315c0-7.791,11.25-4.717,11.25-4.717l-0.14,3.704c0,0-1.887-1.258-4.018-1.258s-2.9,1.013-2.9,2.096	c0,2.795,7.791,2.516,7.791,8.141C42,44.955,30.121,41.112,30.121,41.112z"/></svg>
